; generated by PrusaSlicer 2.3.3 on 2021-10-06 at 18:33:26 UTC


;
;

;
;
; 

; external perimeters extrusion width = 0.45mm
; perimeters extrusion width = 0.45mm
; infill extrusion width = 0.45mm
; solid infill extrusion width = 0.45mm
; top infill extrusion width = 0.40mm
; support material extrusion width = 0.35mm
; first layer extrusion width = 0.42mm

M73 P0 R237
M201 X3000 Y2000 Z60 E10000 ; sets maximum accelerations, mm/sec^2
M203 X500 Y500 Z6 E60 ; sets maximum feedrates, mm/sec
M204 P1250 R1250 T1250 ; sets acceleration (P, T) and retract acceleration (R), mm/sec^2
M205 X10.00 Y10.00 Z0.40 E5.00 ; sets the jerk limits, mm/sec
M205 S0 T0 ; sets the minimum extruding and travel feed rate, mm/sec
M107 ; disable fan
;TYPE:Custom
G90 ; use absolute coordinates
M83 ; extruder relative mode
M204 S1250 T1250
M104 S215 ; set extruder temp
M140 S65 ; set bed temp
G28 ; home all
G1 Y1.0 Z0.3 F1000 ; move print head up
M190 S65 ; wait for bed temp
M109 S215 ; wait for extruder temp
G92 E0.0
; initial load
G1 X205.0 E19 F1000
G1 Y1.6
G1 X5.0 E19 F1000
G92 E0.0
; intro line
G1 Y2.0 Z0.2 F1000
G1 X65.0 E9.0 F1000
G1 X105.0 E12.5 F1000
G92 E0.0
G21 ; set units to millimeters
G90 ; use absolute coordinates
M83 ; use relative distances for extrusion
; Filament gcode
;LAYER_CHANGE
;Z:0.2
;HEIGHT:0.2
;BEFORE_LAYER_CHANGE
G92 E0.0
;0.2
G1 E-6.00000 F4200.000 ; retract
G1 Z0.200 F10800.000 ; lift Z
;AFTER_LAYER_CHANGE
;0.2
G1 Z0.400 ; lift Z
G1 X50.088 Y45.638 ; move to first skirt point
G1 Z0.200 ; restore layer Z
G1 E6.00000 F2400.000 ; unretract
M204 S1000 ; adjust acceleration
;TYPE:Skirt
;WIDTH:0.42
G1 F1200.000
G1 X50.654 Y44.689 E0.03463 ; skirt
G1 X51.136 Y44.240 E0.02066 ; skirt
G1 X51.705 Y43.899 E0.02080 ; skirt
G1 X52.329 Y43.687 E0.02066 ; skirt
G1 X52.988 Y43.610 E0.02080 ; skirt
G1 X156.986 Y43.610 E3.26078 ; skirt
M73 P0 R236
G1 X157.589 Y43.670 E0.01902 ; skirt
G1 X158.170 Y43.845 E0.01902 ; skirt
G1 X158.707 Y44.129 E0.01902 ; skirt
G1 X159.175 Y44.507 E0.01889 ; skirt
G1 X159.565 Y44.972 E0.01902 ; skirt
G1 X159.857 Y45.504 E0.01902 ; skirt
G1 X160.041 Y46.077 E0.01889 ; skirt
G1 X160.112 Y46.680 E0.01902 ; skirt
G1 X160.112 Y163.281 E3.65595 ; skirt
G1 X159.912 Y164.363 E0.03450 ; skirt
G1 X159.346 Y165.312 E0.03463 ; skirt
G1 X158.857 Y165.766 E0.02093 ; skirt
G1 X158.287 Y166.105 E0.02080 ; skirt
G1 X157.654 Y166.317 E0.02093 ; skirt
G1 X156.990 Y166.391 E0.02093 ; skirt
G1 X52.997 Y166.391 E3.26064 ; skirt
G1 X51.915 Y166.190 E0.03450 ; skirt
G1 X50.966 Y165.624 E0.03463 ; skirt
G1 X50.512 Y165.135 E0.02093 ; skirt
G1 X50.173 Y164.565 E0.02080 ; skirt
G1 X49.961 Y163.932 E0.02093 ; skirt
G1 X49.888 Y163.268 E0.02093 ; skirt
G1 X49.888 Y46.720 E3.65431 ; skirt
G1 X50.078 Y45.697 E0.03262 ; skirt
G1 X50.443 Y45.767 F10800.000 ; move to first skirt point
G1 F1200.000
G1 X50.944 Y44.931 E0.03056 ; skirt
G1 X51.370 Y44.536 E0.01822 ; skirt
G1 X51.869 Y44.239 E0.01822 ; skirt
G1 X52.420 Y44.053 E0.01822 ; skirt
G1 X52.993 Y43.987 E0.01809 ; skirt
G1 X156.985 Y43.987 E3.26059 ; skirt
G1 X157.519 Y44.040 E0.01681 ; skirt
G1 X158.028 Y44.194 E0.01669 ; skirt
G1 X158.499 Y44.443 E0.01669 ; skirt
G1 X158.915 Y44.781 E0.01681 ; skirt
G1 X159.256 Y45.189 E0.01669 ; skirt
G1 X159.514 Y45.660 E0.01681 ; skirt
G1 X159.675 Y46.167 E0.01669 ; skirt
G1 X159.735 Y46.696 E0.01669 ; skirt
G1 X159.735 Y163.276 E3.65528 ; skirt
G1 X159.557 Y164.234 E0.03056 ; skirt
G1 X159.056 Y165.070 E0.03056 ; skirt
G1 X158.627 Y165.468 E0.01835 ; skirt
G1 X158.123 Y165.766 E0.01835 ; skirt
G1 X157.568 Y165.950 E0.01835 ; skirt
G1 X156.986 Y166.014 E0.01835 ; skirt
G1 X53.002 Y166.013 E3.26034 ; skirt
G1 X52.044 Y165.835 E0.03056 ; skirt
G1 X51.208 Y165.334 E0.03056 ; skirt
G1 X50.810 Y164.905 E0.01835 ; skirt
G1 X50.512 Y164.401 E0.01835 ; skirt
G1 X50.328 Y163.846 E0.01835 ; skirt
G1 X50.265 Y163.264 E0.01835 ; skirt
G1 X50.265 Y46.725 E3.65400 ; skirt
G1 X50.432 Y45.826 E0.02868 ; skirt
G1 X50.796 Y45.899 F10800.000 ; move to first skirt point
G1 F1200.000
G1 X51.228 Y45.178 E0.02637 ; skirt
G1 X51.593 Y44.839 E0.01562 ; skirt
G1 X52.025 Y44.582 E0.01574 ; skirt
G1 X52.500 Y44.422 E0.01574 ; skirt
G1 X52.999 Y44.365 E0.01574 ; skirt
G1 X156.985 Y44.364 E3.26042 ; skirt
G1 X157.887 Y44.544 E0.02884 ; skirt
G1 X158.651 Y45.050 E0.02872 ; skirt
G1 X159.167 Y45.807 E0.02872 ; skirt
G1 X159.358 Y46.706 E0.02884 ; skirt
G1 X159.358 Y163.271 E3.65480 ; skirt
G1 X159.204 Y164.101 E0.02649 ; skirt
G1 X158.772 Y164.823 E0.02637 ; skirt
G1 X158.400 Y165.166 E0.01585 ; skirt
G1 X157.968 Y165.422 E0.01574 ; skirt
G1 X157.489 Y165.582 E0.01585 ; skirt
G1 X156.986 Y165.636 E0.01585 ; skirt
G1 X53.007 Y165.636 E3.26018 ; skirt
G1 X52.177 Y165.482 E0.02649 ; skirt
G1 X51.455 Y165.050 E0.02637 ; skirt
G1 X51.112 Y164.679 E0.01585 ; skirt
G1 X50.856 Y164.247 E0.01574 ; skirt
G1 X50.696 Y163.767 E0.01585 ; skirt
G1 X50.642 Y163.264 E0.01585 ; skirt
G1 X50.642 Y46.730 E3.65385 ; skirt
M73 P0 R235
G1 X50.785 Y45.958 E0.02461 ; skirt
G1 E-3.60000 F4200.000 ; retract
;WIPE_START
G1 F8640.000
G1 X51.228 Y45.178 E-0.41453 ; wipe and retract
G1 X51.593 Y44.839 E-0.23001 ; wipe and retract
G1 X52.025 Y44.582 E-0.23176 ; wipe and retract
G1 X52.500 Y44.422 E-0.23176 ; wipe and retract
G1 X52.999 Y44.365 E-0.23176 ; wipe and retract
G1 X55.035 Y44.365 E-0.94019 ; wipe and retract
;WIPE_END
G1 E-0.12000 F4200.000 ; retract
G1 Z0.400 F10800.000 ; lift Z
G1 X50.558 Y42.671 ; move to first brim point
G1 Z0.200 ; restore layer Z
G1 E6.00000 F2400.000 ; unretract
G1 F1200.000
G1 X52.472 Y42.028 E0.06330 ; brim
G1 X157.467 Y42.032 E3.29205 ; brim
G1 X158.416 Y42.216 E0.03029 ; brim
G1 X159.324 Y42.607 E0.03101 ; brim
G1 X160.543 Y43.630 E0.04990 ; brim
G1 X161.334 Y44.847 E0.04551 ; brim
G1 X161.695 Y46.230 E0.04481 ; brim
G1 X161.695 Y163.769 E3.68535 ; brim
G1 X161.363 Y165.086 E0.04257 ; brim
G1 X160.637 Y166.270 E0.04355 ; brim
G1 X160.033 Y166.874 E0.02678 ; brim
G1 X159.442 Y167.330 E0.02340 ; brim
G1 X157.528 Y167.973 E0.06330 ; brim
G1 X52.509 Y167.973 E3.29280 ; brim
G1 X51.192 Y167.641 E0.04257 ; brim
G1 X50.008 Y166.915 E0.04355 ; brim
G1 X49.404 Y166.311 E0.02678 ; brim
G1 X48.948 Y165.720 E0.02340 ; brim
G1 X48.305 Y163.806 E0.06330 ; brim
G1 X48.305 Y46.232 E3.68646 ; brim
G1 X48.637 Y44.915 E0.04257 ; brim
G1 X49.363 Y43.731 E0.04355 ; brim
G1 X49.967 Y43.127 E0.02678 ; brim
G1 X50.511 Y42.708 E0.02152 ; brim
G1 X50.740 Y43.007 F10800.000 ; move to first brim point
G1 F1200.000
G1 X52.503 Y42.405 E0.05839 ; brim
G1 X157.449 Y42.409 E3.29051 ; brim
G1 X158.322 Y42.582 E0.02791 ; brim
G1 X159.148 Y42.941 E0.02823 ; brim
G1 X160.278 Y43.900 E0.04647 ; brim
G1 X160.977 Y44.974 E0.04018 ; brim
G1 X161.318 Y46.255 E0.04157 ; brim
G1 X161.318 Y163.745 E3.68382 ; brim
G1 X161.005 Y164.964 E0.03946 ; brim
G1 X160.355 Y166.019 E0.03885 ; brim
G1 X159.775 Y166.598 E0.02571 ; brim
G1 X159.237 Y167.012 E0.02127 ; brim
G1 X157.497 Y167.596 E0.05754 ; brim
G1 X52.533 Y167.596 E3.29108 ; brim
G1 X51.314 Y167.283 E0.03946 ; brim
G1 X50.259 Y166.633 E0.03885 ; brim
G1 X49.680 Y166.053 E0.02571 ; brim
G1 X49.266 Y165.515 E0.02127 ; brim
G1 X48.682 Y163.775 E0.05754 ; brim
G1 X48.682 Y46.256 E3.68474 ; brim
M73 P1 R235
G1 X48.995 Y45.037 E0.03946 ; brim
G1 X49.645 Y43.982 E0.03885 ; brim
G1 X50.225 Y43.403 E0.02571 ; brim
G1 X50.693 Y43.043 E0.01849 ; brim
G1 X50.922 Y43.343 F10800.000 ; move to first brim point
G1 F1200.000
G1 X50.967 Y43.308 E0.00179 ; brim
G1 X52.533 Y42.782 E0.05180 ; brim
G1 X157.430 Y42.786 E3.28895 ; brim
G1 X158.227 Y42.947 E0.02550 ; brim
G1 X158.969 Y43.274 E0.02545 ; brim
G1 X160.011 Y44.167 E0.04302 ; brim
G1 X160.644 Y45.152 E0.03669 ; brim
G1 X160.941 Y46.279 E0.03655 ; brim
G1 X160.941 Y163.722 E3.68233 ; brim
M73 P1 R234
G1 X160.668 Y164.792 E0.03463 ; brim
G1 X160.072 Y165.768 E0.03586 ; brim
G1 X159.517 Y166.323 E0.02460 ; brim
G1 X159.033 Y166.693 E0.01912 ; brim
G1 X157.467 Y167.219 E0.05179 ; brim
G1 X52.556 Y167.219 E3.28939 ; brim
G1 X51.486 Y166.946 E0.03463 ; brim
G1 X50.510 Y166.350 E0.03586 ; brim
G1 X49.955 Y165.795 E0.02460 ; brim
G1 X49.585 Y165.311 E0.01912 ; brim
G1 X49.059 Y163.745 E0.05179 ; brim
G1 X49.059 Y46.279 E3.68305 ; brim
G1 X49.332 Y45.209 E0.03463 ; brim
G1 X49.928 Y44.233 E0.03586 ; brim
G1 X50.483 Y43.678 E0.02460 ; brim
G1 X50.874 Y43.379 E0.01544 ; brim
G1 X51.171 Y43.627 F10800.000 ; move to first brim point
G1 F1200.000
G1 X52.564 Y43.159 E0.04607 ; brim
G1 X157.410 Y43.163 E3.28737 ; brim
G1 X158.130 Y43.312 E0.02304 ; brim
G1 X158.789 Y43.607 E0.02266 ; brim
G1 X159.744 Y44.434 E0.03960 ; brim
G1 X160.288 Y45.279 E0.03149 ; brim
G1 X160.563 Y46.305 E0.03331 ; brim
G1 X160.563 Y163.697 E3.68077 ; brim
G1 X160.311 Y164.669 E0.03149 ; brim
G1 X159.790 Y165.517 E0.03119 ; brim
G1 X159.260 Y166.047 E0.02350 ; brim
G1 X158.829 Y166.374 E0.01695 ; brim
G1 X157.436 Y166.842 E0.04607 ; brim
G1 X52.581 Y166.842 E3.28767 ; brim
G1 X51.609 Y166.589 E0.03149 ; brim
G1 X50.761 Y166.068 E0.03119 ; brim
G1 X50.231 Y165.538 E0.02350 ; brim
G1 X49.904 Y165.107 E0.01695 ; brim
G1 X49.437 Y163.714 E0.04607 ; brim
G1 X49.437 Y46.304 E3.68132 ; brim
G1 X49.689 Y45.332 E0.03149 ; brim
G1 X50.210 Y44.484 E0.03119 ; brim
G1 X50.740 Y43.954 E0.02350 ; brim
G1 X51.123 Y43.663 E0.01507 ; brim
G1 E-3.60000 F4200.000 ; retract
;WIPE_START
G1 F8640.000
G1 X52.564 Y43.159 E-0.70492 ; wipe and retract
G1 X55.975 Y43.160 E-1.57508 ; wipe and retract
;WIPE_END
G1 E-0.12000 F4200.000 ; retract
G1 Z0.400 F10800.000 ; lift Z
G1 X52.687 Y44.668 ; move to first brim point
G1 Z0.200 ; restore layer Z
G1 E6.00000 F2400.000 ; unretract
G1 F1200.000
G1 X157.327 Y44.671 E3.28092 ; brim
G1 X157.687 Y44.754 E0.01157 ; brim
G1 X158.052 Y44.927 E0.01268 ; brim
G1 X158.657 Y45.485 E0.02580 ; brim
G1 X158.889 Y45.846 E0.01347 ; brim
G1 X159.055 Y46.410 E0.01841 ; brim
G1 X159.055 Y163.591 E3.67414 ; brim
G1 X158.889 Y164.155 E0.01842 ; brim
G1 X158.664 Y164.510 E0.01318 ; brim
G1 X158.233 Y164.941 E0.01911 ; brim
G1 X158.025 Y165.093 E0.00808 ; brim
G1 X157.313 Y165.333 E0.02354 ; brim
G1 X52.687 Y165.333 E3.28049 ; brim
G1 X52.123 Y165.167 E0.01842 ; brim
G1 X51.768 Y164.942 E0.01318 ; brim
G1 X51.337 Y164.511 E0.01911 ; brim
G1 X51.185 Y164.303 E0.00808 ; brim
G1 X50.945 Y163.592 E0.02354 ; brim
G1 X50.945 Y46.410 E3.67415 ; brim
M73 P1 R233
G1 X51.111 Y45.846 E0.01842 ; brim
G1 X51.336 Y45.491 E0.01318 ; brim
G1 X51.767 Y45.060 E0.01911 ; brim
G1 X51.975 Y44.908 E0.00808 ; brim
G1 X52.630 Y44.687 E0.02166 ; brim
G1 X52.172 Y45.230 F10800.000 ; move to first brim point
G1 F1200.000
G1 X52.718 Y45.045 E0.01806 ; brim
G1 X157.305 Y45.049 E3.27927 ; brim
G1 X157.543 Y45.104 E0.00767 ; brim
G1 X157.863 Y45.255 E0.01109 ; brim
G1 X158.382 Y45.743 E0.02233 ; brim
G1 X158.537 Y45.984 E0.00898 ; brim
G1 X158.678 Y46.439 E0.01495 ; brim
G1 X158.678 Y163.562 E3.67229 ; brim
G1 X158.537 Y164.018 E0.01496 ; brim
G1 X158.383 Y164.257 E0.00892 ; brim
G1 X157.977 Y164.663 E0.01800 ; brim
G1 X157.828 Y164.771 E0.00579 ; brim
G1 X157.282 Y164.956 E0.01806 ; brim
G1 X52.716 Y164.956 E3.27859 ; brim
G1 X52.261 Y164.815 E0.01496 ; brim
G1 X52.021 Y164.662 E0.00892 ; brim
G1 X51.615 Y164.256 E0.01800 ; brim
G1 X51.507 Y164.106 E0.00579 ; brim
G1 X51.322 Y163.560 E0.01806 ; brim
G1 X51.322 Y46.439 E3.67225 ; brim
G1 X51.463 Y45.984 E0.01496 ; brim
G1 X51.617 Y45.744 E0.00892 ; brim
G1 X52.023 Y45.338 E0.01800 ; brim
G1 X52.124 Y45.265 E0.00391 ; brim
G1 X52.367 Y45.554 F10800.000 ; move to first brim point
G1 F1200.000
G1 X52.750 Y45.422 E0.01270 ; brim
G1 X157.283 Y45.426 E3.27758 ; brim
G1 X157.400 Y45.453 E0.00377 ; brim
G1 X157.673 Y45.582 E0.00947 ; brim
G1 X158.104 Y45.999 E0.01880 ; brim
G1 X158.188 Y46.127 E0.00479 ; brim
G1 X158.301 Y46.471 E0.01136 ; brim
G1 X158.301 Y163.530 E3.67030 ; brim
G1 X158.188 Y163.874 E0.01136 ; brim
G1 X158.103 Y164.004 E0.00484 ; brim
G1 X157.723 Y164.384 E0.01686 ; brim
G1 X157.633 Y164.447 E0.00345 ; brim
G1 X157.250 Y164.579 E0.01270 ; brim
G1 X52.748 Y164.579 E3.27660 ; brim
G1 X52.404 Y164.466 E0.01136 ; brim
G1 X52.275 Y164.382 E0.00484 ; brim
G1 X51.894 Y164.001 E0.01686 ; brim
G1 X51.831 Y163.911 E0.00345 ; brim
G1 X51.699 Y163.529 E0.01270 ; brim
G1 X51.699 Y46.471 E3.67026 ; brim
G1 X51.812 Y46.127 E0.01136 ; brim
G1 X51.897 Y45.998 E0.00484 ; brim
G1 X52.318 Y45.588 E0.01841 ; brim
G1 X52.556 Y45.880 F10800.000 ; move to first brim point
G1 F1200.000
G1 X52.783 Y45.799 E0.00757 ; brim
G1 X157.231 Y45.799 E3.27489 ; brim
G1 X157.481 Y45.909 E0.00856 ; brim
G1 X157.824 Y46.252 E0.01522 ; brim
G1 X157.924 Y46.506 E0.00856 ; brim
G1 X157.924 Y163.495 E3.66810 ; brim
G1 X157.824 Y163.749 E0.00856 ; brim
G1 X157.471 Y164.103 E0.01566 ; brim
G1 X157.217 Y164.202 E0.00856 ; brim
G1 X52.783 Y164.202 E3.27444 ; brim
M73 P1 R232
G1 X52.529 Y164.103 E0.00856 ; brim
G1 X52.176 Y163.749 E0.01566 ; brim
G1 X52.076 Y163.495 E0.00856 ; brim
G1 X52.076 Y46.506 E3.66810 ; brim
M73 P2 R232
G1 X52.176 Y46.252 E0.00856 ; brim
G1 X52.509 Y45.918 E0.01480 ; brim
G1 X52.756 Y46.205 F10800.000 ; move to first brim point
G1 F1200.000
G1 X52.825 Y46.176 E0.00235 ; brim
G1 X157.175 Y46.176 E3.27182 ; brim
G1 X157.244 Y46.205 E0.00235 ; brim
G1 X157.518 Y46.479 E0.01215 ; brim
G1 X157.547 Y46.548 E0.00235 ; brim
G1 X157.547 Y163.453 E3.66547 ; brim
G1 X157.518 Y163.522 E0.00235 ; brim
G1 X157.244 Y163.796 E0.01215 ; brim
G1 X157.175 Y163.825 E0.00235 ; brim
G1 X52.825 Y163.825 E3.27182 ; brim
G1 X52.756 Y163.796 E0.00235 ; brim
G1 X52.482 Y163.522 E0.01215 ; brim
G1 X52.453 Y163.453 E0.00235 ; brim
G1 X52.453 Y46.548 E3.66547 ; brim
G1 X52.482 Y46.479 E0.00235 ; brim
G1 X52.713 Y46.247 E0.01027 ; brim
G1 X52.941 Y46.553 F10800.000 ; move to first brim point
G1 F1200.000
G1 X157.059 Y46.553 E3.26457 ; brim
G1 X157.170 Y46.664 E0.00490 ; brim
G1 X157.170 Y163.337 E3.65823 ; brim
G1 X157.059 Y163.448 E0.00490 ; brim
G1 X52.941 Y163.448 E3.26457 ; brim
G1 X52.830 Y163.337 E0.00490 ; brim
G1 X52.830 Y46.664 E3.65823 ; brim
G1 X52.898 Y46.596 E0.00302 ; brim
G1 X53.429 Y47.152 F10800.000 ; move to first perimeter point
;TYPE:External perimeter
G1 F1200.000
G1 X156.571 Y47.152 E3.23396 ; perimeter
M73 P2 R231
G1 X156.571 Y162.849 E3.62762 ; perimeter
G1 X53.429 Y162.849 E3.23396 ; perimeter
G1 X53.429 Y47.212 E3.62574 ; perimeter
G1 X53.813 Y47.263 F10800.000 ; move inwards before travel
G1 X53.806 Y47.529 ; move to first perimeter point
;TYPE:Perimeter
G1 F1200.000
G1 X156.194 Y47.529 E3.21031 ; perimeter
G1 X156.194 Y162.472 E3.60397 ; perimeter
G1 X53.806 Y162.472 E3.21031 ; perimeter
G1 X53.806 Y47.589 E3.60209 ; perimeter
G1 X54.183 Y47.906 F10800.000 ; move to first perimeter point
G1 F1200.000
G1 X155.817 Y47.906 E3.18667 ; perimeter
G1 X155.817 Y162.095 E3.58033 ; perimeter
G1 X54.183 Y162.095 E3.18667 ; perimeter
G1 X54.183 Y47.966 E3.57844 ; perimeter
M73 P2 R230
G1 E-3.60000 F4200.000 ; retract
;WIPE_START
G1 F8640.000
G1 X59.120 Y47.963 E-2.28000 ; wipe and retract
;WIPE_END
G1 E-0.12000 F4200.000 ; retract
G1 Z0.400 F10800.000 ; lift Z
G1 X64.122 Y137.380 ; move to first perimeter point
G1 Z0.200 ; restore layer Z
G1 E6.00000 F2400.000 ; unretract
;TYPE:External perimeter
G1 F1200.000
G1 X65.059 Y136.544 E0.03939 ; perimeter
G1 X66.412 Y136.040 E0.04528 ; perimeter
G1 X67.718 Y135.903 E0.04116 ; perimeter
G1 X95.649 Y135.903 E0.87577 ; perimeter
G1 X96.955 Y136.040 E0.04116 ; perimeter
G1 X98.308 Y136.544 E0.04528 ; perimeter
G1 X99.245 Y137.380 E0.03939 ; perimeter
G1 X99.524 Y138.258 E0.02887 ; perimeter
G1 X99.524 Y154.453 E0.50777 ; perimeter
G1 X99.245 Y155.330 E0.02887 ; perimeter
G1 X98.308 Y156.167 E0.03939 ; perimeter
G1 X96.955 Y156.670 E0.04528 ; perimeter
G1 X95.649 Y156.808 E0.04116 ; perimeter
G1 X67.718 Y156.808 E0.87577 ; perimeter
G1 X66.412 Y156.670 E0.04116 ; perimeter
G1 X65.059 Y156.167 E0.04528 ; perimeter
G1 X64.122 Y155.330 E0.03939 ; perimeter
G1 X63.843 Y154.453 E0.02887 ; perimeter
G1 X63.843 Y138.258 E0.50777 ; perimeter
G1 X64.104 Y137.437 E0.02699 ; perimeter
