;FLAVOR:Marlin
;TIME:6546
;Filament used: 2.72622m
;Layer height: 0.1
;MINX:66.7
;MINY:71.2
;MINZ:0.1
;MAXX:143.3
;MAXY:138.8
;MAXZ:9.6
;Generated with Cura_SteamEngine master
M140 S60
M105
M190 S60
M104 S200
M105
M109 S200
M82 ;absolute extrusion mode
G21 ;metric values
G90 ;absolute positioning
M82 ;set extruder to absolute mode
M107 ;start with the fan off
G28 X0 Y0 ;move X/Y to min endstops
G28 Z0 ;move Z to min endstops
G1 Z15.0 F50 ;move the platform down 15mm
G92 E0 ;zero the extruded length
G1 F200 E3 ;extrude 3mm of feed stock
G92 E0 ;zero the extruded length again
G1 F50
G0 Y20 F50
M117 Printing...
G5
;EnterSan
M300 S1318 P535
M300 S1318 P267
M300 S2637 P267
M300 S3135 P267
M300 S932 P267
M300 S880 P535
M300 S2637 P267
M300 S1318 P535
M300 S1318 P267
M300 S2637 P267
M300 S3135 P267
M300 S932 P267
M300 S880 P535
M300 S2637 P267
M300 S1318 P535
G92 E0
G92 E0
G1 F2400 E-6
;LAYER_COUNT:96
;LAYER:0
M107
M204 S3000
M205 X10 Y10
G1 F600 Z0.175
G0 F1500 X68.842 Y73.117 Z0.175
M204 S1800
M205 X8 Y8
;TYPE:SKIRT
G1 F600 Z0.1
G1 F2400 E0
G1 X69.397 Y72.628 E0.01722
G1 X70.017 Y72.203 E0.03472
G1 X70.586 Y71.89 E0.04984
G1 X70.97 Y71.716 E0.05966
G1 X71.639 Y71.479 E0.07618
G1 X72.41 Y71.295 E0.09464
G1 X73.18 Y71.215 E0.11266
G1 X73.53 Y71.2 E0.12082
G1 X136.484 Y71.201 E1.58652
G1 X137.228 Y71.249 E1.60387
G1 X137.954 Y71.372 E1.62102
G1 X138.348 Y71.474 E1.63049
G1 X139.007 Y71.705 E1.64675
G1 X139.37 Y71.867 E1.65601
G1 X139.958 Y72.188 E1.6716
G1 X140.311 Y72.419 E1.68143
G1 X140.85 Y72.838 E1.69732
G1 X141.383 Y73.342 E1.7144
G1 X141.873 Y73.929 E1.7322
G1 X142.237 Y74.464 E1.74727
G1 X142.452 Y74.839 E1.75733
G1 X142.719 Y75.396 E1.77171
G1 X142.88 Y75.807 E1.78199
G1 X143.062 Y76.397 E1.79636
G1 X143.161 Y76.827 E1.80664
G1 X143.257 Y77.46 E1.82154
G1 X143.3 Y78.203 E1.83887
G1 X143.3 Y131.798 E3.08668
G1 X143.259 Y132.516 E3.10342
G1 X143.168 Y133.135 E3.11799
G1 X143.067 Y133.584 E3.1287
G1 X142.876 Y134.202 E3.14376
G1 X142.714 Y134.613 E3.15405
G1 X142.456 Y135.152 E3.16796
G1 X142.098 Y135.761 E3.18441
G1 X141.612 Y136.397 E3.20304
G1 X141.162 Y136.878 E3.21838
G1 X140.603 Y137.372 E3.23575
G1 X139.955 Y137.814 E3.25401
G1 X139.369 Y138.133 E3.26954
G1 X139.005 Y138.295 E3.27882
G1 X138.361 Y138.521 E3.29471
G1 X137.539 Y138.713 E3.31436
G1 X136.822 Y138.785 E3.33114
G1 X136.47 Y138.8 E3.33934
G1 X73.516 Y138.799 E4.80504
G1 X72.771 Y138.751 E4.82242
G1 X72.036 Y138.625 E4.83978
G1 X71.642 Y138.522 E4.84927
G1 X70.987 Y138.292 E4.86543
G1 X70.623 Y138.129 E4.87471
G1 X70.048 Y137.815 E4.88997
G1 X69.698 Y137.587 E4.89969
G1 X69.15 Y137.162 E4.91584
G1 X68.603 Y136.643 E4.93339
G1 X68.127 Y136.07 E4.95074
G1 X67.748 Y135.51 E4.96648
G1 X67.54 Y135.145 E4.97626
G1 X67.272 Y134.581 E4.9908
G1 X67.108 Y134.157 E5.00138
G1 X66.923 Y133.546 E5.01625
G1 X66.828 Y133.115 E5.02652
G1 X66.741 Y132.515 E5.04064
G1 X66.7 Y131.797 E5.05738
G1 X66.7 Y78.202 E6.30519
G1 X66.741 Y77.484 E6.32193
G1 X66.832 Y76.865 E6.3365
G1 X66.933 Y76.416 E6.34721
G1 X67.124 Y75.798 E6.36227
G1 X67.286 Y75.387 E6.37256
G1 X67.544 Y74.848 E6.38647
G1 X67.902 Y74.239 E6.40292
G1 X68.393 Y73.597 E6.42173
G1 X68.842 Y73.117 E6.43704
M204 S3000
M205 X10 Y10
G0 F1500 X69.22 Y73.531
M204 S1800
M205 X8 Y8
G1 F2400 X69.741 Y73.07 E6.45323
G1 X70.324 Y72.672 E6.46967
G1 X70.817 Y72.4 E6.48278
G1 X71.201 Y72.226 E6.49259
G1 X71.781 Y72.021 E6.50691
G1 X72.502 Y71.848 E6.52418
G1 X73.226 Y71.773 E6.54112
G1 X73.53 Y71.76 E6.54821
G1 X136.484 Y71.761 E8.01391
G1 X137.182 Y71.807 E8.03019
G1 X137.813 Y71.914 E8.0451
G1 X138.207 Y72.016 E8.05457
G1 X138.778 Y72.216 E8.06866
G1 X139.141 Y72.378 E8.07791
G1 X139.651 Y72.656 E8.09144
G1 X140.004 Y72.887 E8.10126
G1 X140.471 Y73.25 E8.11503
G1 X140.976 Y73.726 E8.13119
G1 X141.435 Y74.279 E8.14792
G1 X141.751 Y74.743 E8.16099
G1 X141.966 Y75.118 E8.17105
G1 X142.197 Y75.6 E8.1835
G1 X142.358 Y76.011 E8.19377
G1 X142.516 Y76.522 E8.20623
G1 X142.615 Y76.952 E8.2165
G1 X142.698 Y77.501 E8.22943
G1 X142.74 Y78.203 E8.2458
G1 X142.74 Y131.798 E9.4936
G1 X142.701 Y132.475 E9.50939
G1 X142.621 Y133.012 E9.52203
G1 X142.52 Y133.461 E9.53275
G1 X142.355 Y133.997 E9.5458
G1 X142.193 Y134.408 E9.55609
G1 X141.97 Y134.875 E9.56814
G1 X141.632 Y135.45 E9.58367
G1 X141.175 Y136.048 E9.60119
G1 X140.784 Y136.465 E9.6145
G1 X140.259 Y136.93 E9.63083
G1 X139.649 Y137.345 E9.648
G1 X139.141 Y137.622 E9.66147
G1 X138.777 Y137.784 E9.67075
G1 X138.219 Y137.979 E9.68451
G1 X137.453 Y138.16 E9.70284
G1 X136.775 Y138.227 E9.7187
G1 X136.47 Y138.24 E9.72581
G1 X73.516 Y138.239 E11.19151
G1 X72.818 Y138.193 E11.20779
G1 X72.177 Y138.084 E11.22293
G1 X71.783 Y137.981 E11.23241
G1 X71.216 Y137.781 E11.24641
G1 X70.852 Y137.618 E11.2557
G1 X70.353 Y137.346 E11.26893
G1 X70.003 Y137.118 E11.27865
G1 X69.528 Y136.749 E11.29266
G1 X69.012 Y136.261 E11.30919
G1 X68.565 Y135.721 E11.32551
G1 X68.234 Y135.233 E11.33924
G1 X68.026 Y134.868 E11.34902
G1 X67.794 Y134.379 E11.36163
G1 X67.63 Y133.955 E11.37221
G1 X67.47 Y133.426 E11.38508
G1 X67.375 Y132.995 E11.39535
G1 X67.3 Y132.474 E11.40761
G1 X67.26 Y131.797 E11.4234
G1 X67.26 Y78.202 E12.6712
G1 X67.299 Y77.525 E12.68699
G1 X67.379 Y76.988 E12.69963
G1 X67.48 Y76.539 E12.71034
G1 X67.645 Y76.003 E12.7234
G1 X67.807 Y75.592 E12.73369
G1 X68.03 Y75.125 E12.74574
G1 X68.368 Y74.55 E12.76126
G1 X68.831 Y73.946 E12.77898
G1 X69.22 Y73.531 E12.79223
M204 S3000
M205 X10 Y10
G0 F1500 X69.598 Y73.944
M204 S1800
M205 X8 Y8
G1 F2400 X70.085 Y73.512 E12.80738
G1 X70.631 Y73.14 E12.82276
G1 X71.432 Y72.737 E12.84364
G1 X71.922 Y72.563 E12.85575
G1 X72.594 Y72.4 E12.87185
G1 X73.273 Y72.331 E12.88774
G1 X73.53 Y72.32 E12.89373
G1 X136.484 Y72.321 E14.35943
G1 X137.135 Y72.365 E14.37462
G1 X137.673 Y72.456 E14.38732
G1 X138.067 Y72.558 E14.3968
G1 X138.55 Y72.727 E14.40871
G1 X139.345 Y73.125 E14.42941
G1 X139.698 Y73.356 E14.43923
G1 X140.093 Y73.663 E14.45088
G1 X140.568 Y74.11 E14.46607
G1 X140.998 Y74.629 E14.48176
G1 X141.48 Y75.396 E14.50285
G1 X141.837 Y76.216 E14.52367
G1 X142.069 Y77.078 E14.54445
G1 X142.172 Y77.977 E14.56552
G1 X142.18 Y78.203 E14.57079
G1 X142.18 Y131.798 E15.81859
G1 X142.142 Y132.435 E15.83345
G1 X141.974 Y133.338 E15.85483
G1 X141.672 Y134.202 E15.87614
G1 X141.279 Y134.956 E15.89594
G1 X140.737 Y135.699 E15.91735
G1 X140.103 Y136.33 E15.93817
G1 X139.689 Y136.651 E15.95037
G1 X138.913 Y137.11 E15.97136
G1 X138.078 Y137.437 E15.99224
G1 X137.368 Y137.606 E16.00923
G1 X136.728 Y137.669 E16.0242
G1 X136.47 Y137.68 E16.03022
G1 X73.516 Y137.679 E17.49592
G1 X72.865 Y137.635 E17.51111
G1 X72.319 Y137.542 E17.524
G1 X71.925 Y137.439 E17.53349
G1 X71.445 Y137.27 E17.54533
G1 X70.659 Y136.877 E17.56579
G1 X70.309 Y136.649 E17.57552
G1 X69.907 Y136.337 E17.58737
G1 X69.421 Y135.879 E17.60291
G1 X69.002 Y135.371 E17.61824
G1 X68.721 Y134.956 E17.62991
G1 X68.316 Y134.177 E17.65036
G1 X68.017 Y133.305 E17.67182
G1 X67.858 Y132.434 E17.69243
G1 X67.82 Y131.797 E17.70729
G1 X67.82 Y78.202 E18.95509
G1 X67.858 Y77.565 E18.96995
G1 X68.026 Y76.662 E18.99133
G1 X68.328 Y75.798 E19.01264
G1 X68.721 Y75.044 E19.03244
G1 X69.003 Y74.629 E19.04412
G1 X69.598 Y73.944 E19.06525
M204 S3000
M205 X10 Y10
G0 F1500 X70.276 Y74.083
M204 S1800
M205 X8 Y8
G1 F2400 X70.938 Y73.608 E19.08422
G1 X71.663 Y73.247 E19.10307
G1 X72.461 Y73 E19.12252
G1 X73.32 Y72.889 E19.14269
G1 X73.53 Y72.88 E19.14758
G1 X136.484 Y72.881 E20.61328
G1 X137.088 Y72.923 E20.62738
G1 X137.927 Y73.1 E20.64734
G1 X138.685 Y73.401 E20.66633
G1 X139.391 Y73.824 E20.68549
G1 X140.028 Y74.364 E20.70493
G1 X140.561 Y74.979 E20.72388
G1 X140.994 Y75.675 E20.74296
G1 X141.315 Y76.42 E20.76185
G1 X141.524 Y77.204 E20.78074
G1 X141.613 Y78.018 E20.79981
G1 X141.62 Y78.203 E20.80412
G1 X141.62 Y131.798 E22.05192
G1 X141.583 Y132.395 E22.06585
G1 X141.428 Y133.215 E22.08528
G1 X141.151 Y133.997 E22.10459
G1 X140.792 Y134.679 E22.12254
G1 X140.299 Y135.35 E22.14192
G1 X139.725 Y135.917 E22.16071
G1 X139.038 Y136.407 E22.18035
G1 X138.322 Y136.76 E22.19894
G1 X137.539 Y137 E22.218
G1 X136.681 Y137.111 E22.23815
G1 X136.47 Y137.12 E22.24306
G1 X73.516 Y137.119 E23.70877
G1 X72.912 Y137.077 E23.72286
G1 X72.067 Y136.897 E23.74298
G1 X71.31 Y136.596 E23.76194
G1 X70.615 Y136.179 E23.78081
G1 X69.969 Y135.633 E23.80051
G1 X69.44 Y135.022 E23.81932
G1 X69 Y134.314 E23.83873
G1 X68.675 Y133.551 E23.85804
G1 X68.469 Y132.753 E23.87723
G1 X68.387 Y131.979 E23.89535
G1 X68.38 Y131.797 E23.89959
G1 X68.38 Y78.202 E25.14739
G1 X68.417 Y77.605 E25.16132
G1 X68.572 Y76.785 E25.18075
G1 X68.849 Y76.003 E25.20006
G1 X69.208 Y75.321 E25.21801
G1 X69.706 Y74.645 E25.23755
G1 X70.276 Y74.083 E25.25619
M204 S3000
M205 X10 Y10
G0 F1500 X70.654 Y74.496
M204 S1800
M205 X8 Y8
G1 F2400 X71.245 Y74.077 E25.27306
G1 X71.894 Y73.757 E25.28991
G1 X72.603 Y73.542 E25.30715
G1 X73.366 Y73.447 E25.32506
G1 X73.53 Y73.44 E25.32888
G1 X136.484 Y73.441 E26.79458
G1 X137.041 Y73.481 E26.80758
G1 X137.786 Y73.643 E26.82533
G1 X138.457 Y73.912 E26.84216
G1 X139.084 Y74.293 E26.85924
G1 X139.65 Y74.777 E26.87658
G1 X140.124 Y75.329 E26.89352
G1 X140.508 Y75.953 E26.91058
G1 X140.794 Y76.624 E26.92756
G1 X140.978 Y77.329 E26.94453
G1 X141.055 Y78.059 E26.96162
G1 X141.06 Y78.203 E26.96497
G1 X141.06 Y131.798 E28.21277
G1 X141.025 Y132.354 E28.22575
G1 X140.881 Y133.092 E28.24325
G1 X140.63 Y133.792 E28.26056
G1 X140.306 Y134.401 E28.27663
G1 X139.861 Y135.001 E28.29402
G1 X139.347 Y135.503 E28.31075
G1 X138.732 Y135.938 E28.32828
G1 X138.094 Y136.249 E28.34481
G1 X137.397 Y136.458 E28.36175
G1 X136.634 Y136.553 E28.37965
G1 X136.47 Y136.56 E28.38347
G1 X73.516 Y136.559 E29.84917
G1 X72.958 Y136.519 E29.8622
G1 X72.208 Y136.355 E29.88007
G1 X71.539 Y136.085 E29.89687
G1 X70.92 Y135.71 E29.91372
G1 X70.348 Y135.221 E29.93124
G1 X69.878 Y134.672 E29.94807
G1 X69.486 Y134.036 E29.96546
G1 X69.197 Y133.349 E29.98281
G1 X69.016 Y132.633 E30.00001
G1 X68.945 Y131.939 E30.01625
G1 X68.94 Y131.797 E30.01956
G1 X68.94 Y78.202 E31.26736
G1 X68.975 Y77.646 E31.28033
G1 X69.119 Y76.908 E31.29784
G1 X69.37 Y76.208 E31.31515
G1 X69.694 Y75.599 E31.33121
G1 X70.144 Y74.995 E31.34875
G1 X70.654 Y74.496 E31.36536
M204 S3000
M205 X10 Y10
G0 F1500 X70.581 Y75.344
M204 S1800
M205 X8 Y8
G1 F2400 X71.032 Y74.909 E31.37995
G1 X71.552 Y74.545 E31.39473
G1 X72.125 Y74.267 E31.40955
G1 X72.745 Y74.084 E31.4246
G1 X73.413 Y74.005 E31.44027
G1 X73.53 Y74 E31.44299
G1 X136.484 Y74.001 E32.90869
G1 X136.994 Y74.039 E32.9206
G1 X137.646 Y74.185 E32.93616
G1 X138.229 Y74.424 E32.95083
G1 X138.778 Y74.762 E32.96584
G1 X139.271 Y75.189 E32.98102
G1 X139.686 Y75.678 E32.99595
G1 X140.023 Y76.232 E33.01105
G1 X140.273 Y76.828 E33.0261
G1 X140.432 Y77.455 E33.04116
G1 X140.496 Y78.1 E33.05625
G1 X140.5 Y78.203 E33.05865
G1 X140.5 Y131.798 E34.30645
G1 X140.466 Y132.314 E34.31849
G1 X140.335 Y132.969 E34.33404
G1 X140.109 Y133.586 E34.34934
G1 X139.819 Y134.124 E34.36357
G1 X139.423 Y134.652 E34.37894
G1 X138.969 Y135.09 E34.39362
G1 X138.426 Y135.469 E34.40904
G1 X137.866 Y135.737 E34.4235
G1 X137.255 Y135.916 E34.43832
G1 X136.587 Y135.995 E34.45398
G1 X136.47 Y136 E34.45671
G1 X73.516 Y135.999 E35.92241
G1 X73.005 Y135.961 E35.93434
G1 X72.35 Y135.813 E35.94997
G1 X71.768 Y135.574 E35.96462
G1 X71.226 Y135.241 E35.97943
G1 X70.726 Y134.808 E35.99483
G1 X70.315 Y134.323 E36.00963
G1 X69.973 Y133.759 E36.02499
G1 X69.719 Y133.147 E36.04041
G1 X69.563 Y132.512 E36.05564
G1 X69.504 Y131.898 E36.07
G1 X69.5 Y131.797 E36.07235
G1 X69.5 Y78.202 E37.32016
G1 X69.534 Y77.686 E37.3322
G1 X69.665 Y77.031 E37.34775
G1 X69.891 Y76.414 E37.36305
G1 X70.181 Y75.876 E37.37728
G1 X70.581 Y75.344 E37.39277
M204 S3000
M205 X10 Y10
G0 F1500 X71.108 Y75.598
M204 S1800
M205 X8 Y8
G1 F2400 X71.534 Y75.226 E37.40594
G1 X71.972 Y74.951 E37.41798
G1 X72.49 Y74.729 E37.4311
G1 X72.986 Y74.605 E37.443
G1 X73.53 Y74.56 E37.45571
G1 X136.484 Y74.561 E38.92141
G1 X137.015 Y74.605 E38.93382
G1 X137.506 Y74.727 E38.9456
G1 X138 Y74.935 E38.95808
G1 X138.471 Y75.23 E38.97102
G1 X138.893 Y75.602 E38.98411
G1 X139.249 Y76.028 E38.99704
G1 X139.537 Y76.51 E39.01011
G1 X139.751 Y77.033 E39.02327
G1 X139.887 Y77.581 E39.03641
G1 X139.938 Y78.141 E39.04951
G1 X139.94 Y78.203 E39.05095
G1 X139.94 Y131.798 E40.29875
G1 X139.89 Y132.397 E40.31275
G1 X139.75 Y132.97 E40.32648
G1 X139.537 Y133.489 E40.33954
G1 X139.248 Y133.973 E40.35267
G1 X138.895 Y134.399 E40.36555
G1 X138.522 Y134.734 E40.37722
G1 X138.003 Y135.063 E40.39153
G1 X137.51 Y135.271 E40.40399
G1 X137.002 Y135.396 E40.41617
G1 X136.47 Y135.44 E40.42859
G1 X73.516 Y135.439 E41.8943
G1 X72.984 Y135.395 E41.90672
G1 X72.492 Y135.272 E41.91853
G1 X71.997 Y135.063 E41.93104
G1 X71.532 Y134.772 E41.94381
G1 X71.105 Y134.396 E41.95706
G1 X70.753 Y133.973 E41.96987
G1 X70.459 Y133.482 E41.98319
G1 X70.242 Y132.945 E41.99668
G1 X70.11 Y132.392 E42.00992
G1 X70.062 Y131.858 E42.0224
G1 X70.06 Y131.797 E42.02382
G1 X70.06 Y78.202 E43.27162
G1 X70.11 Y77.603 E43.28562
G1 X70.25 Y77.03 E43.29935
G1 X70.463 Y76.511 E43.31241
G1 X70.753 Y76.027 E43.32555
G1 X71.108 Y75.598 E43.33851
M204 S3000
M205 X10 Y10
G0 F1500 X71.486 Y76.011
M204 S1800
M205 X8 Y8
G1 F2400 X71.841 Y75.695 E43.34958
G1 X72.203 Y75.461 E43.35961
G1 X72.632 Y75.271 E43.37054
G1 X73.101 Y75.155 E43.38179
G1 X73.53 Y75.12 E43.39181
G1 X136.507 Y75.122 E44.85804
G1 X136.971 Y75.167 E44.8689
G1 X137.409 Y75.284 E44.87945
G1 X137.811 Y75.468 E44.88975
G1 X138.2 Y75.727 E44.90063
G1 X138.56 Y76.063 E44.91209
G1 X138.836 Y76.414 E44.92249
G1 X139.069 Y76.826 E44.93351
G1 X139.242 Y77.276 E44.94473
G1 X139.347 Y77.748 E44.95599
G1 X139.38 Y78.203 E44.96661
G1 X139.379 Y131.818 E46.21488
G1 X139.343 Y132.274 E46.22553
G1 X139.229 Y132.765 E46.23727
G1 X139.05 Y133.212 E46.24848
G1 X138.81 Y133.624 E46.25958
G1 X138.517 Y133.986 E46.27042
G1 X138.159 Y134.306 E46.2816
G1 X137.775 Y134.552 E46.29222
G1 X137.368 Y134.729 E46.30255
G1 X136.897 Y134.845 E46.31384
G1 X136.47 Y134.88 E46.32382
G1 X73.493 Y134.878 E47.79006
G1 X73.027 Y134.833 E47.80095
G1 X72.59 Y134.715 E47.81149
G1 X72.187 Y134.531 E47.82181
G1 X71.801 Y134.274 E47.8326
G1 X71.44 Y133.937 E47.8441
G1 X71.154 Y133.57 E47.85494
G1 X70.928 Y133.167 E47.86569
G1 X70.752 Y132.702 E47.87727
G1 X70.651 Y132.231 E47.88848
G1 X70.62 Y131.797 E47.89861
G1 X70.621 Y78.182 E49.14688
G1 X70.657 Y77.726 E49.15753
G1 X70.771 Y77.235 E49.16927
G1 X70.95 Y76.788 E49.18048
G1 X71.19 Y76.376 E49.19158
G1 X71.486 Y76.011 E49.20252
M204 S3000
M205 X10 Y10
G1 F2400 E43.20252
;MESH:RPi3A+Case_-_Top_-_GPIO.stl
G0 F1500 X71.759 Y78.244
G0 X78.057 Y132.803
G0 X78.717 Y132.803
M204 S1800
M205 X8 Y8
;TYPE:WALL-OUTER
G1 F2400 E49.20252
G1 F1500 X131.283 Y132.803 E50.42637
G1 X131.283 Y126.237 E50.57924
G1 X78.717 Y126.237 E51.80308
G1 X78.717 Y132.803 E51.95595
M204 S3000
M205 X10 Y10
G0 X78.917 Y132.803
G0 X78.917 Y133.463
G0 X136.432 Y133.661
G0 X136.465 Y134.32
M204 S1800
M205 X8 Y8
G1 X73.534 Y134.32 E53.42112
G1 X73.158 Y134.288 E53.42991
G1 X72.807 Y134.197 E53.43835
G1 X72.465 Y134.045 E53.44706
G1 X72.154 Y133.841 E53.45572
G1 X71.871 Y133.58 E53.46468
G1 X71.635 Y133.283 E53.47352
G1 X71.438 Y132.937 E53.48279
G1 X71.296 Y132.57 E53.49195
G1 X71.209 Y132.181 E53.50123
G1 X71.18 Y131.781 E53.51057
G1 X71.18 Y78.217 E54.75765
G1 X71.209 Y77.817 E54.76698
G1 X71.296 Y77.43 E54.77622
G1 X71.44 Y77.059 E54.78549
G1 X71.635 Y76.717 E54.79465
G1 X71.872 Y76.419 E54.80352
G1 X72.158 Y76.156 E54.81256
G1 X72.464 Y75.956 E54.82107
G1 X72.808 Y75.803 E54.82984
G1 X73.16 Y75.712 E54.8383
G1 X73.535 Y75.68 E54.84707
G1 X136.466 Y75.68 E56.31223
G1 X136.842 Y75.712 E56.32102
G1 X137.193 Y75.802 E56.32945
G1 X137.534 Y75.954 E56.33815
G1 X137.846 Y76.16 E56.34685
G1 X138.129 Y76.42 E56.3558
G1 X138.368 Y76.72 E56.36473
G1 X138.559 Y77.058 E56.37377
G1 X138.704 Y77.432 E56.38311
G1 X138.791 Y77.821 E56.39239
G1 X138.82 Y78.219 E56.40168
G1 X138.82 Y131.783 E57.64876
G1 X138.791 Y132.183 E57.6581
G1 X138.704 Y132.57 E57.66733
G1 X138.56 Y132.941 E57.6766
G1 X138.365 Y133.283 E57.68576
